X:2607
T:Rob Roy MacGregor
P:The Beauty of the North
C:Athole Coll.
R:Strathspey (8x32)
B:RSCDS 26-7
Z:Anselm Lingnau <anselm@strathspey.org>
M:C
L:1/8
K:Eb
E|"Eb"G,<E E>F G>A B<c|"F7"C<C F>E "Bb7"D<B, B,2|\
  "Eb"G,<E E>F G>A B<g|"Ab"f>d "Bb7"e/d/c/B/ "Eb"e2 e E|
  "Eb"G,<E E>F G>A B<c|"F7"C<C F>E "Bb7"D<B, B,2|\
  "Eb"G,<E E>F G>A B<g|"Ab"f>d "Bb7"e/d/c/B/ "Eb"e2 e||
g|"Eb"e>g B<g e<g b>g|"Fm"a>g f>e "Bb7"d<B B>g|\
  "Eb"e<g B>g e/f/g/a/ b>g|"Bb7"a>f e/d/c/B/ "Eb"e2 e>f|
  "Eb"g<e B<G e<B G<E|"Fm"A>G F>E "Bb7"D<B, B,2|\
  "Eb"G,>E E<A G<e B<g|"Bb7"f>d e/d/c/B/ "Eb"e2 e|]
